app/assets/v2/images/metafunders/ecf_logo.svg

<svg height="928" width="824" xmlns="http://www.w3.org/2000/svg" xmlns:xlink="http://www.w3.org/1999/xlink"><mask id="a" fill="#fff"><path d="m.338 928h823v-927.511h-823z" fill="#fff" fill-rule="evenodd"/></mask><mask id="b" fill="#fff"><path d="m.338 928h823v-927.511h-823z" fill="#fff" fill-rule="evenodd"/></mask><mask id="c" fill="#fff"><path d="m.338 928h823v-927.511h-823z" fill="#fff" fill-rule="evenodd"/></mask><mask id="d" fill="#fff"><path d="m.338 928h823v-927.511h-823z" fill="#fff" fill-rule="evenodd"/></mask><mask id="e" fill="#fff"><path d="m.338 928h823v-927.511h-823z" fill="#fff" fill-rule="evenodd"/></mask><mask id="f" fill="#fff"><path d="m.338 928h823v-927.511h-823z" fill="#fff" fill-rule="evenodd"/></mask><mask id="g" fill="#fff"><path d="m.338 928h823v-927.511h-823z" fill="#fff" fill-rule="evenodd"/></mask><mask id="h" fill="#fff"><path d="m.338 928h823v-927.511h-823z" fill="#fff" fill-rule="evenodd"/></mask><g fill="#333" fill-rule="nonzero"><path d="m132.264 138.768-56.83 33.08c-37.365 21.58-37.877 54.566-.272 76.31l336.679 195.939 123.514-72.04-403.09-233.29z" mask="url(#a)"/><path d="m690.822 281.687 123.268-71.577-329.525-191.657c-43.007-24.786-105.68-23-143.044-1.42l-53.865 31.422z" mask="url(#b)"/><path d="m551.601 362.71 122.876-71.48-403.166-233.33-122.89 71.526z" mask="url(#c)"/><path d="m402.472 684.985.017-224.69-336.983-196.07c-37.57-21.713-65.169.222-65.169 43.347l.007 143.362 402.128 234.05z" mask="url(#d)"/><path d="m.344 469.657.098 145.183c0 55.237 30.855 97.527 68.428 119.238l333.618 194.277v-224.66l-402.144-234.037z" mask="url(#e)"/><path d="m823.337 371.363v-145.098l-327.318 190.495c-43.962 25.676-74.827 71.71-74.827 122.775v65.858z" mask="url(#f)"/><path d="m684.296 611.382v-140.106l-263.103 152.84v140.417z" mask="url(#g)"/><path d="m421.192 783.257v145.098l123.708-71.985v-144.825z" mask="url(#h)"/></g></svg>

<svg width="824" height="928" xmlns="http://www.w3.org/2000/svg" xmlns:xlink="http://www.w3.org/1999/xlink"><defs><path id="a" d="M.338 928h823V.489h-823z"/><path id="c" d="M.338 928h823V.489h-823z"/><path id="e" d="M.338 928h823V.489h-823z"/><path id="g" d="M.338 928h823V.489h-823z"/><path id="i" d="M.338 928h823V.489h-823z"/><path id="k" d="M.338 928h823V.489h-823z"/><path id="m" d="M.338 928h823V.489h-823z"/><path id="o" d="M.338 928h823V.489h-823z"/></defs><g fill="none" fill-rule="evenodd"><mask id="b" fill="#fff"><use xlink:href="#a"/></mask><path d="M132.264 138.768l-56.83 33.08c-37.365 21.58-37.877 54.566-.272 76.31l336.679 195.939 123.514-72.04-403.09-233.29z" fill="#333" fill-rule="nonzero" mask="url(#b)"/><mask id="d" fill="#fff"><use xlink:href="#c"/></mask><path d="M690.822 281.687L814.09 210.11 484.565 18.453c-43.007-24.786-105.68-23-143.044-1.42l-53.865 31.422 403.166 233.232z" fill="#333" fill-rule="nonzero" mask="url(#d)"/><mask id="f" fill="#fff"><use xlink:href="#e"/></mask><path fill="#333" fill-rule="nonzero" mask="url(#f)" d="M551.601 362.71l122.876-71.48L271.311 57.9l-122.89 71.526z"/><g><mask id="h" fill="#fff"><use xlink:href="#g"/></mask><path d="M402.472 684.985l.017-224.69-336.983-196.07c-37.57-21.713-65.169.222-65.169 43.347l.007 143.362 402.128 234.05z" fill="#333" fill-rule="nonzero" mask="url(#h)"/></g><g><mask id="j" fill="#fff"><use xlink:href="#i"/></mask><path d="M.344 469.657L.442 614.84c0 55.237 30.855 97.527 68.428 119.238l333.618 194.277v-224.66L.344 469.658z" fill="#333" fill-rule="nonzero" mask="url(#j)"/></g><g><mask id="l" fill="#fff"><use xlink:href="#k"/></mask><path d="M823.337 371.363V226.265L496.019 416.76c-43.962 25.676-74.827 71.71-74.827 122.775v65.858l402.145-234.03z" fill="#333" fill-rule="nonzero" mask="url(#l)"/></g><g><mask id="n" fill="#fff"><use xlink:href="#m"/></mask><path fill="#333" fill-rule="nonzero" mask="url(#n)" d="M684.296 611.382V471.276l-263.103 152.84v140.417z"/></g><g><mask id="p" fill="#fff"><use xlink:href="#o"/></mask><path fill="#333" fill-rule="nonzero" mask="url(#p)" d="M421.192 783.257v145.098L544.9 856.37V711.545z"/></g></g></svg>
